X: 7656
T:Polska fr Bj\"orkede
C:e. Oskar Andersson
R:Polska
O:Sweden
A:J\"amtland
N:Version of the Kristian Oskarsson 5-bar one
B:Gamla L\aa{t}ar fr\aa{n] Kall (Leaflet by G\"osta Ullberg)
M:3/4
K:D
{F}uE>(F D2) F2| {EF}ED C2 D2| A>^G A>B A>=G| EF/E/ DE/D/ CD| (3EDC D2 E2-|\
E>F D2 F2| {EF}E>D C2 D2|
A>^G A>B c>B| A2 A2z2::\
{e}e>(c A2) (ce)| eg gf {f}d2| f>e e>c ef| ga/g/ (3fed e>c|
A>c e2 {cdc}A2| eg gf fd| f>e e>c ef| ga/g/ (3fed (3cBc| d2 d2 z2:|
